wp-content/themes/FoundationPress/dist/assets/images/best/icon-sun.svg

<?xml version="1.0" encoding="UTF-8"?>
<svg width="146px" height="95px" viewBox="0 0 146 95" version="1.1" xmlns="http://www.w3.org/2000/svg" xmlns:xlink="http://www.w3.org/1999/xlink">
    <!-- Generator: Sketch 48.2 (47327) - http://www.bohemiancoding.com/sketch -->
    <title>Group 6</title>
    <desc>Created with Sketch.</desc>
    <defs></defs>
    <g id="Home-Revised-Final" stroke="none" stroke-width="1" fill="none" fill-rule="evenodd" transform="translate(-306.000000, -990.000000)">
        <g id="Group-6" transform="translate(306.000000, 990.000000)" fill="#B0DF2F">
            <path d="M121.655469,91.1233456 C116.137186,91.1233456 113.540195,89.455092 110.531044,87.5219337 C107.453416,85.5474244 103.966212,83.3067182 97.3109381,83.3067182 C90.6608319,83.3067182 87.1749204,85.5474244 84.1011681,87.5232259 C81.0933097,89.455092 78.4976106,91.1233456 72.9832035,91.1233456 C67.4687965,91.1233456 64.8718053,89.455092 61.8639469,87.5232259 C58.7876106,85.5474244 55.3016991,83.3067182 48.6477168,83.3067182 C41.9976106,83.3067182 38.5116991,85.5474244 35.4379469,87.5232259 C32.4300885,89.455092 29.8343894,91.1233456 24.3212743,91.1233456 C18.8094513,91.1233456 16.2150442,89.455092 13.2071858,87.5232259 C10.1347257,85.5474244 6.64881416,83.3067182 0,83.3067182 L0,87.1833726 C5.51053097,87.1833726 8.10623009,88.8516262 11.1127965,90.7834923 C14.1865487,92.760586 17.6724602,95 24.3212743,95 C30.9713805,95 34.457292,92.760586 37.5323363,90.7834923 C40.5389027,88.8516262 43.1358938,87.1833726 48.6477168,87.1833726 C54.1634159,87.1833726 56.7604071,88.8516262 59.7695575,90.7834923 C62.8446018,92.760586 66.3318053,95 72.9832035,95 C79.6358938,95 83.1205133,92.760586 86.1955575,90.7834923 C89.2021239,88.8516262 91.799115,87.1833726 97.3109381,87.1833726 C102.829221,87.1833726 105.426212,88.8516262 108.436655,90.7847845 C111.512991,92.760586 115.001487,95 121.655469,95 C128.309451,95 131.797947,92.760586 134.874283,90.7847845 C137.884726,88.8516262 140.481717,87.1833726 146,87.1833726 L146,83.3067182 C139.344726,83.3067182 135.857522,85.5474244 132.779894,87.5219337 C129.770743,89.455092 127.173752,91.1233456 121.655469,91.1233456 Z M93.3146726,73.3669763 C93.9309735,71.1714977 94.2552743,68.8984861 94.2552743,66.5983378 C94.2552743,52.8491369 83.072708,41.6649891 69.3254513,41.6649891 C55.5781947,41.6649891 44.3956283,52.8491369 44.3956283,66.5983378 C44.3956283,68.8274141 44.6902124,71.0383993 45.2703363,73.1666825 L44.3788319,73.4109118 C45.6476106,73.187358 47.0546372,73.056844 48.6477168,73.056844 C55.3016991,73.056844 58.7876106,75.296258 61.8639469,77.2720595 C64.8718053,79.2039256 67.4687965,80.8721792 72.9832035,80.8721792 C78.4976106,80.8721792 81.0933097,79.2039256 84.1011681,77.2720595 C86.4901416,75.7369044 89.1349381,74.0453909 93.3146726,73.3669763 Z M146,73.056844 L146,76.9334984 C140.481717,76.9334984 137.884726,78.601752 134.874283,80.5349103 C131.797947,82.5094196 128.309451,84.7488336 121.655469,84.7488336 C115.001487,84.7488336 111.512991,82.5094196 108.436655,80.5349103 C105.426212,78.601752 102.829221,76.9334984 97.3109381,76.9334984 C91.799115,76.9334984 89.2021239,78.601752 86.1955575,80.5336181 C83.1205133,82.5094196 79.6358938,84.7488336 72.9832035,84.7488336 C66.3318053,84.7488336 62.8446018,82.5094196 59.7695575,80.5336181 C56.7604071,78.601752 54.1634159,76.9334984 48.6477168,76.9334984 C43.1358938,76.9334984 40.5389027,78.601752 37.5323363,80.5336181 C34.457292,82.5094196 30.9713805,84.7488336 24.3212743,84.7488336 C17.6724602,84.7488336 14.1865487,82.5094196 11.1127965,80.5336181 C8.10623009,78.601752 5.51053097,76.9334984 0,76.9334984 L0,73.056844 C6.64881416,73.056844 10.1347257,75.296258 13.2071858,77.2720595 C16.2150442,79.2039256 18.8094513,80.8721792 24.3212743,80.8721792 C29.8343894,80.8721792 32.4300885,79.2039256 35.4379469,77.2720595 C37.1692743,76.1594597 39.0323894,74.9628657 41.5169735,74.129385 C40.8567434,71.6845083 40.5195221,69.1517608 40.5195221,66.5983378 C40.5195221,50.7131004 53.4411681,37.7883347 69.3254513,37.7883347 C85.2097345,37.7883347 98.1313805,50.7131004 98.1313805,66.5983378 C98.1313805,68.7821864 97.8807257,70.9466518 97.3975044,73.0581362 C103.993345,73.0775195 107.467628,75.3053035 110.531044,77.2707673 C113.540195,79.2039256 116.137186,80.8721792 121.655469,80.8721792 C127.173752,80.8721792 129.770743,79.2039256 132.779894,77.2707673 C135.857522,75.296258 139.344726,73.056844 146,73.056844 Z M54.5755752,36.0477169 C54.8843717,36.7959111 55.6066195,37.2456031 56.3676283,37.2456031 C56.613115,37.2456031 56.8650619,37.197791 57.1079646,37.096998 C58.0963717,36.688657 58.5666726,35.5540895 58.1570973,34.5655427 L52.3739469,20.6005414 C51.9656637,19.6132867 50.8351327,19.1416271 49.8415575,19.5512603 C48.8531504,19.9608934 48.3828496,21.0954609 48.7924248,22.0840078 L54.5755752,36.0477169 Z M44.0093097,44.0194105 C44.3878761,44.3980304 44.8840177,44.5866942 45.3801593,44.5866942 C45.8763009,44.5866942 46.3711504,44.3980304 46.7497168,44.0194105 C47.5068496,43.2621707 47.5068496,42.0345634 46.7497168,41.2786158 L24.9815044,19.5073248 C24.2243717,18.750085 22.9982301,18.750085 22.2410973,19.5073248 C21.4839646,20.2632724 21.4839646,21.4908797 22.2410973,22.2481195 L44.0093097,44.0194105 Z M24.818708,46.0624073 C23.8264248,45.651482 22.6946018,46.1231416 22.2863186,47.1103962 C21.8754513,48.1002353 22.3457522,49.2335106 23.3341593,49.6431438 L37.2971858,55.4271121 C37.5387965,55.5279051 37.7907434,55.5757172 38.0375221,55.5757172 C38.798531,55.5757172 39.5207788,55.1260253 39.8295752,54.3791232 C40.2391504,53.3892841 39.7701416,52.2560088 38.7804425,51.8463757 L24.818708,46.0624073 Z M4.67587611,68.536665 L35.4612035,68.536665 C36.5310088,68.536665 37.3992566,67.6682944 37.3992566,66.5983378 C37.3992566,65.527089 36.5310088,64.6600106 35.4612035,64.6600106 L4.67587611,64.6600106 C3.6060708,64.6600106 2.73782301,65.527089 2.73782301,66.5983378 C2.73782301,67.6682944 3.6060708,68.536665 4.67587611,68.536665 Z M69.3254513,34.6676279 C70.3952566,34.6676279 71.2635044,33.7992573 71.2635044,32.7293007 L71.2635044,1.93832719 C71.2635044,0.868370581 70.3952566,0 69.3254513,0 C68.255646,0 67.3873982,0.868370581 67.3873982,1.93832719 L67.3873982,32.7293007 C67.3873982,33.7992573 68.255646,34.6676279 69.3254513,34.6676279 Z M116.365876,47.1103962 C115.957593,46.1231416 114.82577,45.6527742 113.833487,46.0624073 L99.8717522,51.8463757 C98.8820531,52.2560088 98.4130442,53.3892841 98.8226195,54.3791232 C99.1314159,55.1260253 99.8536637,55.5757172 100.614673,55.5757172 C100.860159,55.5757172 101.113398,55.5279051 101.355009,55.4271121 L115.318035,49.6431438 C116.306442,49.2335106 116.776743,48.1002353 116.365876,47.1103962 Z M101.252938,66.5983378 C101.252938,67.6682944 102.121186,68.536665 103.190991,68.536665 L133.976319,68.536665 C135.046124,68.536665 135.914372,67.6682944 135.914372,66.5983378 C135.914372,65.527089 135.046124,64.6600106 133.976319,64.6600106 L103.190991,64.6600106 C102.121186,64.6600106 101.252938,65.527089 101.252938,66.5983378 Z M93.2720354,44.5866942 C93.768177,44.5866942 94.2643186,44.3980304 94.642885,44.0194105 L116.411097,22.2481195 C117.16823,21.4908797 117.16823,20.2632724 116.411097,19.5073248 C115.653965,18.750085 114.427823,18.750085 113.67069,19.5073248 L91.9024779,41.2786158 C91.1453451,42.0345634 91.1453451,43.2621707 91.9024779,44.0194105 C92.2810442,44.3980304 92.7758938,44.5866942 93.2720354,44.5866942 Z M80.4950973,34.5642504 L86.2782478,20.6005414 C86.687823,19.6107023 87.8222301,19.1416271 88.8106372,19.5512603 C89.8003363,19.9608934 90.2693451,21.0954609 89.8597699,22.0840078 L84.0753274,36.0490091 C83.766531,36.7959111 83.0442832,37.2456031 82.2832743,37.2456031 C82.0364956,37.2456031 81.7858407,37.197791 81.5429381,37.096998 C80.5532389,36.688657 80.0842301,35.5540895 80.4950973,34.5642504 Z" id="Page-1"></path>
        </g>
    </g>
</svg>

<svg width="146" height="95" viewBox="0 0 146 95" xmlns="http://www.w3.org/2000/svg"><title>Group 6</title><path d="M121.655 91.123c-5.518 0-8.115-1.668-11.124-3.601-3.078-1.975-6.565-4.215-13.22-4.215-6.65 0-10.136 2.24-13.21 4.216-3.008 1.932-5.603 3.6-11.118 3.6-5.514 0-8.111-1.668-11.12-3.6-3.075-1.976-6.561-4.216-13.215-4.216-6.65 0-10.136 2.24-13.21 4.216-3.008 1.932-5.604 3.6-11.117 3.6-5.512 0-8.106-1.668-11.114-3.6C10.135 85.547 6.65 83.307 0 83.307v3.876c5.51 0 8.106 1.669 11.113 3.6C14.187 92.761 17.673 95 24.32 95c6.65 0 10.136-2.24 13.211-4.217 3.007-1.931 5.604-3.6 11.116-3.6 5.515 0 8.112 1.669 11.122 3.6C62.845 92.761 66.332 95 72.983 95c6.653 0 10.138-2.24 13.213-4.217 3.006-1.931 5.603-3.6 11.115-3.6 5.518 0 8.115 1.669 11.126 3.602C111.513 92.76 115 95 121.655 95s10.143-2.24 13.22-4.215c3.01-1.933 5.607-3.602 11.125-3.602v-3.876c-6.655 0-10.142 2.24-13.22 4.215-3.01 1.933-5.606 3.601-11.125 3.601zm-28.34-17.756a25.03 25.03 0 0 0 .94-6.769c0-13.749-11.182-24.933-24.93-24.933-13.747 0-24.93 11.184-24.93 24.933 0 2.23.295 4.44.875 6.569l-.891.244a24.482 24.482 0 0 1 4.269-.354c6.654 0 10.14 2.24 13.216 4.215 3.008 1.932 5.605 3.6 11.12 3.6 5.514 0 8.11-1.668 11.117-3.6 2.39-1.535 5.034-3.227 9.214-3.905zm52.685-.31v3.876c-5.518 0-8.115 1.669-11.126 3.602-3.076 1.974-6.565 4.214-13.219 4.214-6.654 0-10.142-2.24-13.218-4.214-3.01-1.933-5.608-3.602-11.126-3.602-5.512 0-8.109 1.669-11.115 3.6-3.075 1.976-6.56 4.216-13.213 4.216-6.651 0-10.138-2.24-13.213-4.215-3.01-1.932-5.607-3.6-11.122-3.6-5.512 0-8.11 1.668-11.116 3.6-3.075 1.975-6.56 4.215-13.21 4.215-6.65 0-10.135-2.24-13.21-4.215-3.006-1.932-5.601-3.6-11.112-3.6v-3.877c6.649 0 10.135 2.24 13.207 4.215 3.008 1.932 5.602 3.6 11.114 3.6 5.513 0 8.11-1.668 11.117-3.6 1.731-1.113 3.594-2.31 6.079-3.143a28.89 28.89 0 0 1-.997-7.53c0-15.886 12.921-28.81 28.805-28.81 15.885 0 28.806 12.924 28.806 28.81 0 2.183-.25 4.348-.733 6.46 6.595.019 10.07 2.246 13.133 4.212 3.01 1.933 5.606 3.601 11.124 3.601 5.519 0 8.116-1.668 11.125-3.601 3.078-1.975 6.565-4.214 13.22-4.214zm-91.424-37.01a1.937 1.937 0 1 0 3.581-1.481L52.374 20.6a1.938 1.938 0 1 0-3.582 1.483l5.784 13.964zM44.009 44.02c.379.379.875.568 1.371.568s.991-.189 1.37-.568a1.938 1.938 0 0 0 0-2.74L24.982 19.507a1.937 1.937 0 1 0-2.74 2.741L44.008 44.02zm-19.19 2.043a1.937 1.937 0 1 0-1.485 3.58l13.963 5.785a1.938 1.938 0 0 0 1.483-3.58L24.82 46.061zM4.676 68.537H35.46a1.939 1.939 0 0 0 0-3.877H4.676a1.938 1.938 0 0 0 0 3.877zm64.65-33.87c1.07 0 1.938-.868 1.938-1.938V1.94a1.939 1.939 0 0 0-3.877 0v30.79c0 1.07.869 1.939 1.938 1.939zm47.04 12.443a1.938 1.938 0 0 0-2.533-1.048l-13.961 5.784a1.938 1.938 0 1 0 1.483 3.581l13.963-5.784a1.937 1.937 0 0 0 1.048-2.533zm-15.113 19.488c0 1.07.868 1.939 1.938 1.939h30.785a1.939 1.939 0 0 0 0-3.877h-30.785c-1.07 0-1.938.867-1.938 1.938zm-7.981-22.011c.496 0 .992-.189 1.37-.568l21.77-21.77a1.938 1.938 0 1 0-2.741-2.742L91.902 41.28a1.938 1.938 0 0 0 1.37 3.308zM80.495 34.564l5.783-13.963a1.938 1.938 0 1 1 3.582 1.483l-5.785 13.965a1.938 1.938 0 1 1-3.58-1.485z" fill="#B0DF2F" fill-rule="evenodd"/></svg>
